Newaita-dark/actions/22/format-remove-node.svg

<svg height="22" viewBox="0 0 22 22" width="22" xmlns="http://www.w3.org/2000/svg"><g fill="#e0e0e0"><path d="m12.734375 5.628906h7.277344v1.820313h-7.277344zm0 0"/><path d="m8.640625 3.355469c-.503906 0-.910156.40625-.910156.910156v4.546875c0 .503906.40625.910156.910156.910156h4.546875c.503906 0 .910156-.40625.910156-.910156v-4.546875c0-.503906-.40625-.910156-.910156-.910156zm1.363281 1.820312h1.820313c.253906 0 .457031.203125.457031.453125v1.820313c0 .25-.203125.453125-.457031.453125h-1.820313c-.25 0-.453125-.203125-.453125-.453125v-1.820313c0-.25.203125-.453125.453125-.453125zm0 0"/><path d="m1.820312 5.628906h7.277344v1.820313h-7.277344zm0 0"/></g><path d="m13.8125 18.265625-.644531.640625c-.175781.179688-.464844.179688-.640625 0l-4.503906-4.5c-.175782-.179688-.175782-.464844 0-.644531l.644531-.644531c.175781-.175782.464843-.175782.640625 0l4.503906 4.503906c.179688.175781.179688.464844 0 .644531zm0 0" fill="#f44336"/><path d="m8.667969 18.90625-.644531-.640625c-.175782-.179687-.175782-.46875 0-.644531l4.503906-4.503906c.175781-.175782.464844-.175782.640625 0l.644531.644531c.179688.179687.179688.464843 0 .644531l-4.503906 4.5c-.175782.179688-.464844.179688-.640625 0zm0 0" fill="#f44336"/></svg>

<?xml version="1.0" encoding="UTF-8"?>
<svg xmlns="http://www.w3.org/2000/svg" xmlns:xlink="http://www.w3.org/1999/xlink" width="22px" height="22px" viewBox="0 0 22 22" version="1.1">
<g id="surface1">
<path style=" stroke:none;fill-rule:nonzero;fill:rgb(87.843138%,87.843138%,87.843138%);fill-opacity:1;" d="M 12.734375 5.628906 L 20.011719 5.628906 L 20.011719 7.449219 L 12.734375 7.449219 Z M 12.734375 5.628906 "/>
<path style=" stroke:none;fill-rule:nonzero;fill:rgb(87.843138%,87.843138%,87.843138%);fill-opacity:1;" d="M 8.640625 3.355469 C 8.136719 3.355469 7.730469 3.761719 7.730469 4.265625 L 7.730469 8.8125 C 7.730469 9.316406 8.136719 9.722656 8.640625 9.722656 L 13.1875 9.722656 C 13.691406 9.722656 14.097656 9.316406 14.097656 8.8125 L 14.097656 4.265625 C 14.097656 3.761719 13.691406 3.355469 13.1875 3.355469 Z M 10.003906 5.175781 L 11.824219 5.175781 C 12.078125 5.175781 12.28125 5.378906 12.28125 5.628906 L 12.28125 7.449219 C 12.28125 7.699219 12.078125 7.902344 11.824219 7.902344 L 10.003906 7.902344 C 9.753906 7.902344 9.550781 7.699219 9.550781 7.449219 L 9.550781 5.628906 C 9.550781 5.378906 9.753906 5.175781 10.003906 5.175781 Z M 10.003906 5.175781 "/>
<path style=" stroke:none;fill-rule:nonzero;fill:rgb(87.843138%,87.843138%,87.843138%);fill-opacity:1;" d="M 1.820312 5.628906 L 9.097656 5.628906 L 9.097656 7.449219 L 1.820312 7.449219 Z M 1.820312 5.628906 "/>
<path style=" stroke:none;fill-rule:nonzero;fill:rgb(95.686275%,26.274511%,21.176471%);fill-opacity:1;" d="M 13.8125 18.265625 L 13.167969 18.90625 C 12.992188 19.085938 12.703125 19.085938 12.527344 18.90625 L 8.023438 14.40625 C 7.847656 14.226562 7.847656 13.941406 8.023438 13.761719 L 8.667969 13.117188 C 8.84375 12.941406 9.132812 12.941406 9.308594 13.117188 L 13.8125 17.621094 C 13.992188 17.796875 13.992188 18.085938 13.8125 18.265625 Z M 13.8125 18.265625 "/>
<path style=" stroke:none;fill-rule:nonzero;fill:rgb(95.686275%,26.274511%,21.176471%);fill-opacity:1;" d="M 8.667969 18.90625 L 8.023438 18.265625 C 7.847656 18.085938 7.847656 17.796875 8.023438 17.621094 L 12.527344 13.117188 C 12.703125 12.941406 12.992188 12.941406 13.167969 13.117188 L 13.8125 13.761719 C 13.992188 13.941406 13.992188 14.226562 13.8125 14.40625 L 9.308594 18.90625 C 9.132812 19.085938 8.84375 19.085938 8.667969 18.90625 Z M 8.667969 18.90625 "/>
</g>
</svg>
